material/.icons/material/firework.svg

<svg xmlns="http://www.w3.org/2000/svg" viewBox="0 0 24 24"><path d="M5.8 16.59l-1.3-1.31 7.76-7.78 4.24 4.24-7.78 7.76-1.43-1.41c-.25.07-.49.19-.66.41-.06.07-.13.15-.13.24-.08.14-.12.26-.18.41-.11.27-.23.54-.39.78-.12.17-.25.33-.4.46-.11.11-.24.2-.37.27-.08.05-.16.1-.26.13-.6.25-1.27.21-1.9.21v-2h.9c.1 0 .18 0 .26-.06l.05-.05c.07-.08.13-.19.18-.29.08-.18.14-.36.21-.54l.04-.1c.12-.27.26-.51.44-.73.1-.13.22-.23.34-.36.12-.1.24-.2.38-.28M21 3l-1.12 8.19-7.07-7.07L21 3z"/></svg>

<?xml version="1.0" encoding="UTF-8"?><!DOCTYPE svg PUBLIC "-//W3C//DTD SVG 1.1//EN" "http://www.w3.org/Graphics/SVG/1.1/DTD/svg11.dtd"><svg xmlns="http://www.w3.org/2000/svg" xmlns:xlink="http://www.w3.org/1999/xlink" version="1.1" id="mdi-firework" width="24" height="24" viewBox="0 0 24 24"><path d="M5.8,16.59L4.5,15.28L12.26,7.5L16.5,11.74L8.72,19.5L7.29,18.09C7.04,18.16 6.8,18.28 6.63,18.5C6.57,18.57 6.5,18.65 6.5,18.74C6.42,18.88 6.38,19 6.32,19.15C6.21,19.42 6.09,19.69 5.93,19.93C5.81,20.1 5.68,20.26 5.53,20.39C5.42,20.5 5.29,20.59 5.16,20.66C5.08,20.71 5,20.76 4.9,20.79C4.3,21.04 3.63,21 3,21V19C3.23,19 3.83,19 3.9,19C4,19 4.08,19 4.16,18.94C4.18,18.92 4.19,18.91 4.21,18.89C4.28,18.81 4.34,18.7 4.39,18.6C4.47,18.42 4.53,18.24 4.6,18.06L4.64,17.96C4.76,17.69 4.9,17.45 5.08,17.23C5.18,17.1 5.3,17 5.42,16.87C5.54,16.77 5.66,16.67 5.8,16.59M21,3L19.88,11.19L12.81,4.12L21,3Z" /></svg>
